X:572
T:Polska efter Olof Nordblad
T:(SvL Hälsingland 572)
R:Polska
B:Svenska Låtar Hälsingland
O:Norrala, Hälsingland
S:Olof Nordblad
M:3/4
L:1/8
K:D
v[Dd]2 [Dd][Dd]/[Dd]/ [Dd][Dd]|f2 ff/f/ ff|a2 aa/a/ (a/b/)c'/d'/|a2 g2 f2|e2 (e/g/)f/g/ a/g/f/g/|
B2 (c/d/)e/c/ d2|F2 GA B/A/G/F/ |E>D C>D B,D|A,(G/F/) GE B,D|CE E2 D2:|
|:A2 c2 e/d/c/B/|F>A d>e f/e/d/c/|A>a gg ff|f2 e4|
G2 B2 e/d/c/B/|A2 B/A/B/c/ d2|bg/e/ af/d/ e>g|(f/e/)d/c/ d4:|

